X:1
T:Title
%%score ( 1 2 ) ( 3 4 )
L:1/8
Q:1/4=90
M:4/4
K:A
V:1 treble nm="Midi_20"
V:2 treble 
V:3 bass nm="Midi_20"
V:4 bass 
V:1
"^Sharon (L.M.)""^F. A. Gore Ouseley\n(1825-89)" A2 | A2 E2 A2 d2 | c2 B2 A2 || c2 | B2 ^d2 e2 A2 | %5
 G2 F2 E4 || B2 | G2 E2 c2 A2 | d2 B2 G2 || B2 | e2 d2 c2 BF | A2 B2 A4 |] %12
V:2
 C2 | E2 E2 F2 F2 | A2 G2 A2 || E2 | E2 A2 G2 E2 | E2 ^D2 E4 || E2 | E2 E2 E2 E2 | D2 F2 E2 || E2 | %10
 E2 FD E2 F2 | E3 D C4 |] %12
V:3
 A,2 | C2 B,2 C2 D2 | E3 D C2 || A,2 | B,2 B,2 B,2 A,2 | B,3 A, G,4 || G,2 | B,2 B,2 A,2 C2 | %8
 A,2 D2 B,2 || G,2 | A,3 G, A,2 D2 | C2 G,2 A,4 |] %12
V:4
 A,,2 | A,2 G,2 F,2 B,,2 | E,2 E,2 A,2 || A,2 | G,2 F,2 E,2 C,2 | B,,2 B,,2 E,4 || E,2 | %7
 E,2 G,2 A,2 A,2 | F,2 D,2 E,2 || E,D, | C,2 B,,2 C,2 D,2 | E,2 E,2 A,,4 |] %12

